icon/pk/target-one.svg

<svg viewBox="0 0 48 48" fill="none" xmlns="http://www.w3.org/2000/svg" height="1em" width="1em">
  <path d="M23.8887 39.8887C32.7287 39.8887 39.8887 32.7287 39.8887 23.8887C39.8887 15.0487 32.7287 7.88867 23.8887 7.88867C15.0487 7.88867 7.88867 15.0487 7.88867 23.8887C7.88867 32.7287 15.0487 39.8887 23.8887 39.8887Z" fill="#2F88FF" stroke="black" stroke-width="4" stroke-miterlimit="2" stroke-linejoin="round"/>
  <path d="M23.8887 31.8887C28.3087 31.8887 31.8887 28.3087 31.8887 23.8887C31.8887 19.4687 28.3087 15.8887 23.8887 15.8887C19.4687 15.8887 15.8887 19.4687 15.8887 23.8887C15.8887 28.3087 19.4687 31.8887 23.8887 31.8887Z" fill="#43CCF8" stroke="white" stroke-width="4" stroke-miterlimit="2" stroke-linejoin="round"/>
  <path d="M23.8887 25.8887C24.9887 25.8887 25.8887 24.9887 25.8887 23.8887C25.8887 22.7887 24.9887 21.8887 23.8887 21.8887C22.7887 21.8887 21.8887 22.7887 21.8887 23.8887C21.8887 24.9887 22.7887 25.8887 23.8887 25.8887Z" fill="black"/>
  <path d="M23.8887 7.88867V3.88867" stroke="black" stroke-width="4" stroke-miterlimit="2" stroke-linecap="round" stroke-linejoin="round"/>
  <path d="M37.8887 43.8887L33.8887 36.8887" stroke="black" stroke-width="4" stroke-miterlimit="2" stroke-linecap="round" stroke-linejoin="round"/>
  <path d="M13.8887 36.8887L9.88867 43.8887" stroke="black" stroke-width="4" stroke-miterlimit="2" stroke-linecap="round" stroke-linejoin="round"/>
</svg>

<svg width="48" height="48" fill="none" xmlns="http://www.w3.org/2000/svg"><path d="M23.889 39.889c8.84 0 16-7.16 16-16s-7.16-16-16-16-16 7.16-16 16 7.16 16 16 16Z" fill="#2F88FF" stroke="#000" stroke-width="4" stroke-miterlimit="2" stroke-linejoin="round"/><path d="M23.889 31.889c4.42 0 8-3.58 8-8s-3.58-8-8-8-8 3.58-8 8 3.58 8 8 8Z" fill="#43CCF8" stroke="#fff" stroke-width="4" stroke-miterlimit="2" stroke-linejoin="round"/><path d="M23.889 25.889c1.1 0 2-.9 2-2s-.9-2-2-2-2 .9-2 2 .9 2 2 2Z" fill="#000"/><path d="M23.889 7.889v-4M37.889 43.889l-4-7M13.889 36.889l-4 7" stroke="#000" stroke-width="4" stroke-miterlimit="2" stroke-linecap="round" stroke-linejoin="round"/></svg>
